X: 1
T:Jacob, or Enrico
S:abc-users, Dave Barnert, 4/98
M:C|
L:1/8
K:D
A2|:d2fedcdB|ABAGF2A2|d2efgfgf|e2a2a2fe|
d2fedcdB|ABAGF2A2|B2gfedec|1d2d2d2A2:|2d2d2d2z2|
|:a2agfgfe|dedcB2B2|gagfefed|cdcBA2(3ABc|
d2d2cecA|d2d2cecA|d2f2edec|d2d2d2z2:||
